packages/match-logos/mono/svg/apartment-list.svg

<svg fill="none" height="30" viewBox="0 0 186 30" width="186" xmlns="http://www.w3.org/2000/svg"><g fill="#1f304c"><path d="m132.13 0c-5.001 0-9.168 4.074-9.168 9.075 0 4.9988 4.815 11.2028 9.168 17.1285 4.26-5.8335 9.166-12.1298 9.166-17.13 0-4.99875-4.074-9.0735-9.166-9.0735zm-.093 13.425c-1.203-.002-2.356-.4805-3.206-1.3307-.851-.8502-1.329-2.0027-1.332-3.2053.002-1.20281.481-2.35579 1.331-3.20631.851-.85051 2.004-1.32921 3.207-1.33119 2.497.093 4.537 2.03775 4.537 4.5375-.002 1.2028-.481 2.3558-1.331 3.2063-.851.8505-2.004 1.3292-3.206 1.3312z" opacity=".5"/><path d="m6.29625 12.963c-2.22225 0-3.61125.3705-5.0925 1.0185l.92625 2.871c1.203-.4635 2.2215-.741 3.6105-.741 1.8525 0 2.778.8325 2.778 2.4075v.1845c-.92625-.3705-1.94475-.555-3.24-.555-3.15 0-5.2785 1.3875-5.2785 4.26 0 2.5912 2.037 3.9802 4.4445 3.9802 1.8525 0 3.0555-.648 3.981-1.6665v1.4813h3.705v-7.5923c0-1.7595-.3713-3.1485-1.3898-4.167-.92245-.9285-2.40745-1.485-4.44145-1.485zm2.22225 8.61c0 1.2975-1.20375 2.223-2.9625 2.4075-1.20375 0-2.03775-.555-2.03775-1.5728v-.093c0-1.2037 1.02-1.8525 2.595-1.8525.927 0 1.76025.186 2.4075.4635v.651zm13.7962-8.7953c-1.9447 0-3.1477.9263-4.074 2.13v-1.8525h-3.7005v16.9448h3.7035v-5.5553c.834 1.0185 2.13 1.944 4.0748 1.944 3.0555 0 5.925-2.4075 5.925-6.759v-.093c0-4.3545-2.8695-6.762-5.925-6.762zm-.9262 10.4625c-1.6665 0-3.1478-1.4812-3.1478-3.6105v-.0922c0-2.13 1.392-3.6113 3.15-3.6113 1.7603 0 3.24 1.4813 3.24 3.7035 0 2.2223-1.4797 3.6113-3.24 3.6113zm14.259-10.2772c-2.22 0-3.6097.3705-5.0925 1.0185l.927 2.8702c1.2037-.465 2.2222-.7425 3.6112-.7425 1.8525 0 2.7803.8325 2.7803 2.4075v.1838c-.9263-.3705-1.9448-.555-3.24-.555-3.15 0-5.2785 1.3875-5.2785 4.26 0 2.5912 2.0362 3.9802 4.5375 3.9802 1.8502 0 3.054-.648 3.9802-1.6665v1.482h3.6113v-7.59c0-1.7602-.3705-3.15-1.389-4.1677-.9263-.9285-2.4075-1.485-4.4445-1.485zm2.2237 8.61c0 1.2975-1.2037 2.223-2.9625 2.4075-1.2045 0-2.0377-.555-2.0377-1.5728v-.093c0-1.2037 1.0185-1.8525 2.5927-1.8525.9263 0 1.7595.186 2.4075.4635v.651zm13.8878-8.703v3.8895h-.1853c-2.4997 0-3.981 1.4812-3.981 4.6297v4.8113h-3.7027v-13.1475h3.7027v2.685c.7403-1.8525 1.944-2.9625 4.1663-2.871zm30.648 4.7227v8.5185h-3.7035v-7.3147c0-1.7595-.7403-2.685-2.13-2.685-1.3875 0-2.2215.9255-2.2215 2.685v7.3147h-3.705v-7.3147c0-1.7595-.7395-2.685-2.1285-2.685s-2.2223.9255-2.2223 2.685v7.3147h-3.7035v-13.056h3.5175v1.8525c.834-1.1115 1.9455-2.13 3.8895-2.13 1.6665 0 2.9625.741 3.7035 2.037 1.1145-1.389 2.5035-2.037 4.26-2.037 2.7803 0 4.4475 1.6665 4.4475 4.815zm8.334-4.7227c-3.7965 0-6.4815 3.0562-6.4815 6.852 0 3.9825 2.9625 6.7597 6.8512 6.7597 2.4075 0 4.17-.93 5.3738-2.4075l-2.13-1.8525c-1.0185 1.0163-1.944 1.3875-3.1478 1.3875-1.6665 0-2.8702-.927-3.24-2.5935h9.0735c.0923-.3705.0923-.741.0923-1.0185 0-3.705-2.0378-7.1302-6.39-7.1302zm-2.871 5.7412c.3705-1.6665 1.2975-2.778 2.8702-2.778 1.5728 0 2.5928 1.1145 2.778 2.781h-5.6475zm23.149-.9262v8.5185h-3.705v-7.3148c0-1.7587-.833-2.685-2.222-2.685s-2.314.9263-2.314 2.685v7.3148h-3.703v-13.1475h3.703v1.851c.832-1.11 1.944-2.13 3.796-2.13 2.775 0 4.442 1.8525 4.442 4.908zm-51.1128 5.0925.927 2.685c-.738.4635-1.9425.9262-3.24.9262-2.3122 0-4.0725-1.389-4.0725-4.4445v-12.77922h3.705v3.88952h3.0555v3.1477h-3.0562v5.7405c0 .8325.3697 1.296 1.203 1.296.6487-.093 1.2045-.2775 1.482-.4635zm59.6308 0 .926 2.685c-.741.4635-1.944.9262-3.24.9262-2.223 0-4.075-1.389-4.075-4.4445v-12.77922h3.703v3.88952h3.057v3.1477h-3.058v5.7405c0 .8325.37 1.296 1.204 1.296.648-.093 1.203-.2775 1.482-.4635zm65.463 2.685c-.741.4635-1.945.9262-3.24.9262-2.223 0-4.075-1.389-4.075-4.4445v-12.77922h3.704v3.88952h3.055v3.1477h-3.055v5.7405c0 .8325.37 1.296 1.204 1.296.648-.093 1.203-.2775 1.481-.4635l.926 2.685zm-30.926-16.29602h3.703v16.94472h-3.703zm6.388 0h3.89v3.33372h-3.89zm.093 4.72202h3.704v12.2227h-3.704v-12.2212zm16.11 8.241v.093c0 2.8702-2.221 4.26-4.998 4.26-2.04-.0938-4.077-.6495-5.835-2.0378l1.575-2.4075c1.387 1.0185 2.868 1.575 4.164 1.575 1.111 0 1.575-.3712 1.575-1.02v-.0922c0-.8325-1.298-1.11-2.685-1.4813-1.853-.555-3.89-1.389-3.89-3.9825v-.0915c0-2.685 2.129-4.167 4.815-4.167 1.665 0 3.425.555 4.907 1.4813l-1.39 2.5927c-1.298-.7425-2.593-1.2075-3.518-1.2075-.927 0-1.389.3713-1.389.927v.0915c0 .7403 1.203 1.11 2.685 1.575 1.852.6465 3.981 1.4798 3.981 3.8873zm-27.22-4.722c-2.871 4.1662-10.464 6.4815-17.315 8.796 4.26-5.8335 9.166-12.1298 9.166-17.13002 0-2.118-.737-4.065-1.967-5.6115 2.602-.78525 5.527-.4065 7.893 1.26 4.074 2.87025 5.092 8.61152 2.222 12.68552z"/></g></svg>

<svg width="186" height="30" viewBox="0 0 186 30" fill="none" xmlns="http://www.w3.org/2000/svg">
<path opacity="0.5" d="M132.13 0C127.129 0 122.962 4.074 122.962 9.075C122.962 14.0738 127.777 20.2778 132.13 26.2035C136.39 20.37 141.296 14.0737 141.296 9.0735C141.296 4.07475 137.222 0 132.13 0ZM132.037 13.425C130.834 13.423 129.681 12.9445 128.831 12.0943C127.98 11.2441 127.502 10.0916 127.499 8.889C127.501 7.68619 127.98 6.53321 128.83 5.68269C129.681 4.83218 130.834 4.35348 132.037 4.3515C134.534 4.4445 136.574 6.38925 136.574 8.889C136.572 10.0918 136.093 11.2448 135.243 12.0953C134.392 12.9458 133.239 13.4245 132.037 13.4265V13.425Z" fill="#1F304C"/>
<path d="M6.29625 12.963C4.074 12.963 2.685 13.3335 1.20375 13.9815L2.13 16.8525C3.333 16.389 4.3515 16.1115 5.7405 16.1115C7.593 16.1115 8.5185 16.944 8.5185 18.519V18.7035C7.59225 18.333 6.57375 18.1485 5.2785 18.1485C2.1285 18.1485 0 19.536 0 22.4085C0 24.9997 2.037 26.3887 4.4445 26.3887C6.297 26.3887 7.5 25.7407 8.4255 24.7222V26.2035H12.1305V18.6112C12.1305 16.8517 11.7592 15.4627 10.7407 14.4442C9.81825 13.5157 8.33325 12.9592 6.29925 12.9592L6.29625 12.963ZM8.5185 21.573C8.5185 22.8705 7.31475 23.796 5.556 23.9805C4.35225 23.9805 3.51825 23.4255 3.51825 22.4077V22.3147C3.51825 21.111 4.53825 20.4622 6.11325 20.4622C7.04025 20.4622 7.8735 20.6482 8.52075 20.9257V21.5767L8.5185 21.573ZM22.3147 12.7777C20.37 12.7777 19.167 13.704 18.2407 14.9077V13.0552H14.5402V30H18.2437V24.4447C19.0777 25.4632 20.3737 26.3887 22.3185 26.3887C25.374 26.3887 28.2435 23.9812 28.2435 19.6297V19.5367C28.2435 15.1822 25.374 12.7747 22.3185 12.7747L22.3147 12.7777ZM21.3885 23.2402C19.722 23.2402 18.2407 21.759 18.2407 19.6297V19.5375C18.2407 17.4075 19.6327 15.9262 21.3907 15.9262C23.151 15.9262 24.6307 17.4075 24.6307 19.6297C24.6307 21.852 23.151 23.241 21.3907 23.241L21.3885 23.2402ZM35.6475 12.963C33.4275 12.963 32.0378 13.3335 30.555 13.9815L31.482 16.8517C32.6857 16.3867 33.7042 16.1092 35.0932 16.1092C36.9457 16.1092 37.8735 16.9417 37.8735 18.5167V18.7005C36.9472 18.33 35.9287 18.1455 34.6335 18.1455C31.4835 18.1455 29.355 19.533 29.355 22.4055C29.355 24.9967 31.3912 26.3857 33.8925 26.3857C35.7427 26.3857 36.9465 25.7377 37.8727 24.7192V26.2012H41.484V18.6112C41.484 16.851 41.1135 15.4612 40.095 14.4435C39.1687 13.515 37.6875 12.9585 35.6505 12.9585L35.6475 12.963ZM37.8712 21.573C37.8712 22.8705 36.6675 23.796 34.9087 23.9805C33.7042 23.9805 32.871 23.4255 32.871 22.4077V22.3147C32.871 21.111 33.8895 20.4622 35.4637 20.4622C36.39 20.4622 37.2232 20.6482 37.8712 20.9257V21.5767V21.573ZM51.759 12.87V16.7595H51.5737C49.074 16.7595 47.5927 18.2407 47.5927 21.3892V26.2005H43.89V13.053H47.5927V15.738C48.333 13.8855 49.5367 12.7755 51.759 12.867V12.87ZM82.407 17.5927V26.1112H78.7035V18.7965C78.7035 17.037 77.9632 16.1115 76.5735 16.1115C75.186 16.1115 74.352 17.037 74.352 18.7965V26.1112H70.647V18.7965C70.647 17.037 69.9075 16.1115 68.5185 16.1115C67.1295 16.1115 66.2962 17.037 66.2962 18.7965V26.1112H62.5927V13.0552H66.1102V14.9077C66.9442 13.7962 68.0557 12.7777 69.9997 12.7777C71.6662 12.7777 72.9622 13.5187 73.7032 14.8147C74.8177 13.4257 76.2067 12.7777 77.9632 12.7777C80.7435 12.7777 82.4107 14.4442 82.4107 17.5927H82.407ZM90.741 12.87C86.9445 12.87 84.2595 15.9262 84.2595 19.722C84.2595 23.7045 87.222 26.4817 91.1107 26.4817C93.5182 26.4817 95.2807 25.5517 96.4845 24.0742L94.3545 22.2217C93.336 23.238 92.4105 23.6092 91.2067 23.6092C89.5402 23.6092 88.3365 22.6822 87.9667 21.0157H97.0402C97.1325 20.6452 97.1325 20.2747 97.1325 19.9972C97.1325 16.2922 95.0947 12.867 90.7425 12.867L90.741 12.87ZM87.87 18.6112C88.2405 16.9447 89.1675 15.8332 90.7402 15.8332C92.313 15.8332 93.333 16.9477 93.5182 18.6142H87.8707L87.87 18.6112ZM111.019 17.685V26.2035H107.314V18.8887C107.314 17.13 106.481 16.2037 105.092 16.2037C103.703 16.2037 102.778 17.13 102.778 18.8887V26.2035H99.075V13.056H102.778V14.907C103.61 13.797 104.722 12.777 106.574 12.777C109.349 12.777 111.016 14.6295 111.016 17.685H111.019ZM59.9062 22.7775L60.8332 25.4625C60.0952 25.926 58.8907 26.3887 57.5932 26.3887C55.281 26.3887 53.5207 24.9997 53.5207 21.9442V9.16498H57.2257V13.0545H60.2812V16.2022H57.225V21.9427C57.225 22.7752 57.5947 23.2387 58.428 23.2387C59.0767 23.1457 59.6325 22.9612 59.91 22.7752L59.9062 22.7775ZM119.537 22.7775L120.463 25.4625C119.722 25.926 118.519 26.3887 117.223 26.3887C115 26.3887 113.148 24.9997 113.148 21.9442V9.16498H116.851V13.0545H119.908V16.2022H116.85V21.9427C116.85 22.7752 117.22 23.2387 118.054 23.2387C118.702 23.1457 119.257 22.9612 119.536 22.7752L119.537 22.7775ZM185 25.4625C184.259 25.926 183.055 26.3887 181.76 26.3887C179.537 26.3887 177.685 24.9997 177.685 21.9442V9.16498H181.389V13.0545H184.444V16.2022H181.389V21.9427C181.389 22.7752 181.759 23.2387 182.593 23.2387C183.241 23.1457 183.796 22.9612 184.074 22.7752L185 25.4602V25.4625ZM154.074 9.16648H157.777V26.1112H154.074V9.16648ZM160.462 9.16648H164.352V12.5002H160.462V9.16648ZM160.555 13.8885H164.259V26.1112H160.555V13.89V13.8885ZM176.665 22.1295V22.2225C176.665 25.0927 174.444 26.4825 171.667 26.4825C169.627 26.3887 167.59 25.833 165.832 24.4447L167.407 22.0372C168.794 23.0557 170.275 23.6122 171.571 23.6122C172.682 23.6122 173.146 23.241 173.146 22.5922V22.5C173.146 21.6675 171.848 21.39 170.461 21.0187C168.608 20.4637 166.571 19.6297 166.571 17.0362V16.9447C166.571 14.2597 168.7 12.7777 171.386 12.7777C173.051 12.7777 174.811 13.3327 176.293 14.259L174.903 16.8517C173.605 16.1092 172.31 15.6442 171.385 15.6442C170.458 15.6442 169.996 16.0155 169.996 16.5712V16.6627C169.996 17.403 171.199 17.7727 172.681 18.2377C174.533 18.8842 176.662 19.7175 176.662 22.125L176.665 22.1295ZM149.445 17.4075C146.574 21.5737 138.981 23.889 132.13 26.2035C136.39 20.37 141.296 14.0737 141.296 9.07348C141.296 6.95548 140.559 5.00848 139.329 3.46198C141.931 2.67673 144.856 3.05548 147.222 4.72198C151.296 7.59223 152.314 13.3335 149.444 17.4075H149.445Z" fill="#1F304C"/>
</svg>
